source/images/logo/animejs.svg

<svg fill="none" height="33" viewBox="0 0 132 33" width="132" xmlns="http://www.w3.org/2000/svg"><g clip-rule="evenodd" fill="#252423" fill-rule="evenodd"><path d="m.796878.15918h19.999922c1.1794 0 2.0109.628308 2.4772 1.18039.4299.50905.6706 1.07649.8134 1.48907.2921.84395.4406 1.84527.5293 2.73174.1802 1.8011.1801 3.9089.1801 5.21812v21.3806h-19.86661c-1.09648 0-1.92297-.5321-2.43741-1.0855-.469-.5046-.73944-1.0782-.90279-1.5072-.32988-.8662-.49575-1.889-.594003-2.7825-.199224-1.8118-.199154-3.9273-.199111-5.2346l.000001-.1099c-.000034-1.3092-.000088-3.4137.17969-5.2122.088613-.8865.237073-1.888.529323-2.7321.14288-.4128.38369-.9804.81394-1.4895.46673-.5523 1.29825-1.1798 2.47703-1.1798h14.66664c0-1.36135-.0026-3.22417-.1537-4.73453-.0222-.22227-.0463-.42169-.0714-.59878h-18.441522zm18.230522 4.36234c.0002-.00023.0025.00463.0067.01528-.0047-.00973-.0068-.01506-.0067-.01528zm.4361 11.63758h-13.10869c-.02505.177-.04917.3764-.07138.5986-.15097 1.5103-.15324 3.373-.15324 4.7347 0 1.3645.00276 3.2135.16716 4.7085.02587.2354.05399.4433.0829.6248h13.08325zm-12.87214 11.55c-.0001.0002-.00247-.0044-.0068-.0146.00474.0093.0069.0144.0068.0146zm-.02571-12.5206c.00011.0002-.002.0055-.00667.0153.00423-.0107.00656-.0156.00667-.0153z"/><path d="m108.986 1.33928c.467-.552189 1.298-1.1801 2.477-1.1801h16c1.179 0 2.011.627911 2.477 1.1801.431.50909.671 1.07661.814 1.48926.292.84405.441 1.84546.529 2.73194.18 1.7998.18 3.90594.18 5.21512v.1004c0 1.3092 0 3.4153-.18 5.2151-.088.8865-.237 1.8879-.529 2.732-.143.4126-.383.9801-.814 1.4892-.466.5522-1.298 1.1801-2.477 1.1801h-14.666c0 1.3616.002 3.2243.153 4.7347.022.2222.046.4216.072.5986h18.441v5.3334h-20c-1.179 0-2.01-.628-2.477-1.1801-.43-.5091-.671-1.0767-.813-1.4893-.293-.8441-.441-1.8455-.53-2.7319-.18-1.7998-.18-3.906-.18-5.2152v-10.767c0-1.30918 0-3.41532.18-5.21512.089-.88648.237-1.88789.53-2.73194.142-.41265.383-.98017.813-1.48926zm4.246 26.45732c0 .0002-.002-.0047-.006-.0153.004.0097.007.015.006.0153zm-.435-11.6375h13.108c.025-.177.049-.3764.072-.5987.151-1.5103.153-3.373.153-4.7346 0-1.36154-.002-3.22428-.153-4.73463-.023-.22224-.047-.42163-.072-.59868h-12.883c-.026.17705-.05.37644-.072.59868-.151 1.51035-.153 3.37309-.153 4.73463zm.435-11.63742c.001.00023-.002.00556-.006.01529.004-.01066.006-.01552.006-.01529zm12.462 0c0-.00023.003.00463.007.01529-.005-.00973-.007-.01506-.007-.01529zm0 12.60822c0-.0002.002-.0055.007-.0153-.004.0107-.007.0156-.007.0153z"/><path d="m59.4632 10.8252v21.3332h-5.3333v-21.3332z"/><path d="m59.4632.185547v5.413313h-5.3333v-5.413313z"/><path d="m28.9865 1.33928c.4665-.552189 1.298-1.1801 2.4771-1.1801h15.9999c1.1792 0 2.0107.627911 2.4772 1.1801.4301.50909.6708 1.07661.8136 1.48926.2922.84405.4407 1.84546.5293 2.73194.18 1.7998.18 3.90594.1799 5.21512v21.3835h-5.3333v-21.3333c0-1.36154-.0024-3.22428-.1534-4.73463-.0222-.22224-.0464-.42163-.0714-.59868h-12.8836c-.0251.17705-.0492.37644-.0714.59868-.1511 1.51035-.1535 3.37309-.1535 4.73463v21.3333h-5.3333v-21.3835c0-1.30918-.0001-3.41532.1799-5.21512.0887-.88648.2372-1.88789.5293-2.73194.1429-.41265.3836-.98017.8137-1.48926zm4.2462 3.1824c.0001.00023-.002.00556-.0067.01529.0042-.01066.0066-.01552.0067-.01529zm12.4618 0c.0001-.00023.0024.00463.0066.01529-.0046-.00973-.0067-.01506-.0066-.01529z"/><path d="m63.6527 1.33928c.4665-.552189 1.2981-1.1801 2.4772-1.1801h34.6661c1.18 0 2.011.627911 2.478 1.1801.43.50909.67 1.07661.813 1.48926.292.84405.441 1.84546.529 2.73194.18 1.7998.18 3.90594.18 5.21512v21.3835h-5.3329v-21.3333c0-1.36154-.0024-3.22428-.1535-4.73463-.0222-.22224-.0463-.42163-.0714-.59868h-31.5502c-.025.17705-.0491.37644-.0714.59868-.151 1.51035-.1534 3.37309-.1534 4.73463v21.3333h-5.3333v-21.3835c0-1.30918-.0001-3.41532.1799-5.21512.0886-.88648.2371-1.88789.5293-2.73194.1428-.41265.3836-.98017.8136-1.48926zm4.2462 3.1824c.0001.00023-.002.00556-.0066.01529.0042-.01066.0065-.01552.0066-.01529zm31.1284 0c.0001-.00024.0025.00463.0067.01529-.0047-.00973-.0068-.01506-.0067-.01529z"/></g></svg>

<svg width="132" height="33" viewBox="0 0 132 33" fill="none" xmlns="http://www.w3.org/2000/svg">
<path fill-rule="evenodd" clip-rule="evenodd" d="M0.796878 0.15918H20.7968C21.9762 0.15918 22.8077 0.787488 23.274 1.33957C23.7039 1.84862 23.9446 2.41606 24.0874 2.82864C24.3795 3.67259 24.528 4.67391 24.6167 5.56038C24.7969 7.36148 24.7968 9.46928 24.7968 10.7785V32.1591H4.93019C3.83371 32.1591 3.00722 31.627 2.49278 31.0736C2.02378 30.569 1.75334 29.9954 1.58999 29.5664C1.26011 28.7002 1.09424 27.6774 0.995987 26.7839C0.796763 24.9721 0.796833 22.8566 0.796876 21.5493L0.796877 21.4394C0.796843 20.1302 0.796789 18.0257 0.976567 16.2272C1.06518 15.3407 1.21364 14.3392 1.50589 13.4951C1.64877 13.0823 1.88958 12.5147 2.31983 12.0056C2.78656 11.4533 3.61808 10.8258 4.79686 10.8258H19.4635C19.4635 9.46445 19.4609 7.60163 19.3098 6.09127C19.2876 5.869 19.2635 5.66958 19.2384 5.49249H0.796878V0.15918ZM19.0274 4.52152C19.0276 4.52129 19.0299 4.52615 19.0341 4.5368C19.0294 4.52707 19.0273 4.52174 19.0274 4.52152ZM19.4635 16.1591H6.35481C6.32976 16.3361 6.30564 16.5355 6.28343 16.7577C6.13246 18.268 6.13019 20.1307 6.13019 21.4924C6.13019 22.8569 6.13295 24.7059 6.29735 26.2009C6.32322 26.4363 6.35134 26.6442 6.38025 26.8257H19.4635V16.1591ZM6.59136 27.7091C6.59126 27.7093 6.58889 27.7047 6.58456 27.6945C6.5893 27.7038 6.59146 27.7089 6.59136 27.7091ZM6.56565 15.1885C6.56576 15.1887 6.56365 15.194 6.55898 15.2038C6.56321 15.1931 6.56554 15.1882 6.56565 15.1885Z" fill="#252423"/>
<path fill-rule="evenodd" clip-rule="evenodd" d="M108.986 1.33928C109.453 0.787091 110.284 0.15918 111.463 0.15918H127.463C128.642 0.15918 129.474 0.787091 129.94 1.33928C130.371 1.84837 130.611 2.41589 130.754 2.82854C131.046 3.67259 131.195 4.674 131.283 5.56048C131.463 7.36028 131.463 9.46642 131.463 10.7756V10.876C131.463 12.1852 131.463 14.2913 131.283 16.0911C131.195 16.9776 131.046 17.979 130.754 18.8231C130.611 19.2357 130.371 19.8032 129.94 20.3123C129.474 20.8645 128.642 21.4924 127.463 21.4924H112.797C112.797 22.854 112.799 24.7167 112.95 26.2271C112.972 26.4493 112.996 26.6487 113.022 26.8257H131.463V32.1591H111.463C110.284 32.1591 109.453 31.5311 108.986 30.979C108.556 30.4699 108.315 29.9023 108.173 29.4897C107.88 28.6456 107.732 27.6442 107.643 26.7578C107.463 24.958 107.463 22.8518 107.463 21.5426V10.7756C107.463 9.46642 107.463 7.36028 107.643 5.56048C107.732 4.674 107.88 3.67259 108.173 2.82854C108.315 2.41589 108.556 1.84837 108.986 1.33928ZM113.232 27.7966C113.232 27.7968 113.23 27.7919 113.226 27.7813C113.23 27.791 113.233 27.7963 113.232 27.7966ZM112.797 16.1591H125.905C125.93 15.9821 125.954 15.7827 125.977 15.5604C126.128 14.0501 126.13 12.1874 126.13 10.8258C126.13 9.46426 126.128 7.60152 125.977 6.09117C125.954 5.86893 125.93 5.66954 125.905 5.49249H113.022C112.996 5.66954 112.972 5.86893 112.95 6.09117C112.799 7.60152 112.797 9.46426 112.797 10.8258V16.1591ZM113.232 4.52168C113.233 4.52191 113.23 4.52724 113.226 4.53697C113.23 4.52631 113.232 4.52145 113.232 4.52168ZM125.694 4.52168C125.694 4.52145 125.697 4.52631 125.701 4.53697C125.696 4.52724 125.694 4.52191 125.694 4.52168ZM125.694 17.1299C125.694 17.1297 125.696 17.1244 125.701 17.1146C125.697 17.1253 125.694 17.1302 125.694 17.1299Z" fill="#252423"/>
<path fill-rule="evenodd" clip-rule="evenodd" d="M59.4632 10.8252V32.1584H54.1299V10.8252H59.4632Z" fill="#252423"/>
<path fill-rule="evenodd" clip-rule="evenodd" d="M59.4632 0.185547V5.59886H54.1299V0.185547H59.4632Z" fill="#252423"/>
<path fill-rule="evenodd" clip-rule="evenodd" d="M28.9865 1.33928C29.453 0.787091 30.2845 0.15918 31.4636 0.15918H47.4635C48.6427 0.15918 49.4742 0.787091 49.9407 1.33928C50.3708 1.84837 50.6115 2.41589 50.7543 2.82854C51.0465 3.67259 51.195 4.674 51.2836 5.56048C51.4636 7.36028 51.4636 9.46642 51.4635 10.7756V32.1591H46.1302V10.8258C46.1302 9.46426 46.1278 7.60152 45.9768 6.09117C45.9546 5.86893 45.9304 5.66954 45.9054 5.49249H33.0218C32.9967 5.66954 32.9726 5.86893 32.9504 6.09117C32.7993 7.60152 32.7969 9.46426 32.7969 10.8258V32.1591H27.4636L27.4636 10.7756C27.4636 9.46642 27.4635 7.36028 27.6435 5.56048C27.7322 4.674 27.8807 3.67259 28.1728 2.82854C28.3157 2.41589 28.5564 1.84837 28.9865 1.33928ZM33.2327 4.52168C33.2328 4.52191 33.2307 4.52724 33.226 4.53697C33.2302 4.52631 33.2326 4.52145 33.2327 4.52168ZM45.6945 4.52168C45.6946 4.52145 45.6969 4.52631 45.7011 4.53697C45.6965 4.52724 45.6944 4.52191 45.6945 4.52168Z" fill="#252423"/>
<path fill-rule="evenodd" clip-rule="evenodd" d="M63.6527 1.33928C64.1192 0.787091 64.9508 0.15918 66.1299 0.15918H100.796C101.976 0.15918 102.807 0.787091 103.274 1.33928C103.704 1.84837 103.944 2.41589 104.087 2.82854C104.379 3.67259 104.528 4.674 104.616 5.56048C104.796 7.36028 104.796 9.46642 104.796 10.7756V32.1591H99.4631V10.8258C99.4631 9.46426 99.4607 7.60152 99.3096 6.09117C99.2874 5.86893 99.2633 5.66954 99.2382 5.49249H67.688C67.663 5.66954 67.6389 5.86893 67.6166 6.09117C67.4656 7.60152 67.4632 9.46426 67.4632 10.8258V32.1591H62.1299L62.1299 10.7756C62.1299 9.46642 62.1298 7.36028 62.3098 5.56048C62.3984 4.674 62.5469 3.67259 62.8391 2.82854C62.9819 2.41589 63.2227 1.84837 63.6527 1.33928ZM67.8989 4.52168C67.899 4.52191 67.8969 4.52724 67.8923 4.53697C67.8965 4.52631 67.8988 4.52145 67.8989 4.52168ZM99.0273 4.52168C99.0274 4.52144 99.0298 4.52631 99.034 4.53697C99.0293 4.52724 99.0272 4.52191 99.0273 4.52168Z" fill="#252423"/>
</svg>
